X:471
T: Der Schuster und das Mdchen (180a), S. 394
N: T0359
O: Luxemburg
S: Singendes Volk, Esch-Alzette, 1937 posth.]
N: Straen, fff Witry, 10.1.1933
R: Tage-, Wchter-, Fenstergang-, Stndchenlieder, Liebeslied]
M: 6/8
L: 1/16
K: G
D2 | G2G2G2A4c2 | B6A4
c2 | B4A2E4F2 | G6z4
BD | D4BBA4c2 | G6D4
D2 | A2A2A2A4c2 | B6A4
c2 | B4A2G4F2 | G6z4
BD | D4BBA4c2 | G6D4
D2 | A2A2A2A4c2 | B6A4
c2 | B4A2G4F2 | G6z4

@@@ Tune index: 8525
